!!!!SEGMENT: pl-kk--kk-i-382--016-002_anonim--nro-5-sanctus.krn
!!!cenid: 18xx:1482
!!!COM: Anonim
!!!COM-rismid: pe30004985
!!!CDT:
!!!CNT:
!!!OPR: Nro 5
!!!OTL: Sanctus
!!!OMV: 005
!!!PDT:
!!!AGN: Sacred
!!!SMS-siglum: PL-Kk
!!!SMS-shelfmark: Kk.I.382
!!!SMS-shelfwork: 005-005 M
!!!SMS-variant:
!!!SMS-altvar:
!!!NIFC-rismid: 1001139099
!!!URL-scan: http://repozytorium.nifc.pl/skany/pl-kk-nut--i-382
!!!ONB-nifc: UWAGA: obsada: S (T 1), A (B 1), T 2, B 2; S (T 1): skan 0015-0016; A (B 1): skan 0161; T 2: skan 0087; B 2: skan 0233
!!!key:
**kern	**text	**kern	**text	**kern	**text	**kern	**text
*part4	*part4	*part3	*part3	*part2	*part2	*part1	*part1
*staff4	*staff4	*staff3	*staff3	*staff2	*staff2	*staff1	*staff1
*Ibass	*	*Itenor	*	*Ialto	*	*Itenor	*
*I"Basso II	*	*I"Tenore II	*	*I"Alto vel Basso I	*	*I"Soprano vel Tenore I.	*
*I'B 2	*	*I'T 2	*	*I'A (B 1)	*	*I'S (T 1)	*
*clefF4	*	*clefC4	*	*clefC3	*	*clefC1	*
*k[]	*	*k[]	*	*k[]	*	*k[]	*
*C:	*	*C:	*	*C:	*	*C:	*
*M4/4	*	*M4/4	*	*M4/4	*	*M4/4	*
*met(C.)	*	*met(C.)	*	*met(C.)	*	*met(C.)	*
=1	=1	=1	=1	=1	=1	=1	=1
*2\right	*	*2\right	*	*2\right	*	*2\right	*
!LO:TX:t=P:problem:all\right:global	!	!	!	!LO:TX:t=P:problem:all\right:global	!	!LO:TX:t=P:problem:all\right:global	!
!LO:TX:a:t=P:problem:w źródle "Sanctus" zapisane przed pierwszym taktem na pięciolinii	!	!LO:TX:a:t=P:problem:w źródle "Sanctus." zapisane przed pierwszym taktem na pięciolinii	!	!LO:TX:a:t=P:problem:w źródle "Sanctus" zapisane przed pierwszym taktem na pięciolinii	!	!LO:TX:a:t=P:problem:w źródle "Sanctus" zapisane przed pierwszym taktem na pięciolinii	!
!LO:TX:a:i:t=Sanctus	!	!LO:TX:a:i:t=Sanctus.	!	!LO:TX:a:i:t=Sanctus	!	!LO:TX:a:i:t=Sanctus	!
4C\	San-	1G	San-	8c/L	San-	(>4ee\	San-
.	.	.	.	8B/	.	.	.
4D\	.	.	.	8c/	.	4dd\)	.
.	.	.	.	8d/J	.	.	.
4E\	.	.	.	8c/L	.	(>4cc\	-ctus
.	.	.	.	8e/	.	.	.
4C\	.	.	.	8d/	.	4ee\)	.
.	.	.	.	8c/J	.	.	.
=2	=2	=2	=2	=2	=2	=2	=2
!	!	!LO:TX:t=P:problem:all\right:global	!	!	!	!	!
4G\	.	8B\L	.	8d\L	.	(>4dd\	san-
.	.	8A\	.	8c\	.	.	.
4D\	.	8B\	.	8d\	.	4b\)	.
.	.	8c\J	.	8e\J	.	.	.
(<4BB/	-ctus	8B\L	-ctus	8d\L	.	2g\	-ctus
.	.	8d\	.	8f\	.	.	.
4GG/)	.	8c\	.	8e\	.	.	.
.	.	8B\J	.	8d\J	.	.	.
=3	=3	=3	=3	=3	=3	=3	=3
(<4C/	San-	8c\L	San-	8e\L	.	4e/	san-
.	.	8B\	.	8d\	.	.	.
4D/)	.	8c\	.	8e\	.	4f/	.
.	.	8d\J	.	8f\J	.	.	.
!	!	!	!	!	!	!	!
(>4E\	-ctus	8c\L	.	8e\L	.	2g/	-ctus
.	.	8e\	.	8g\	.	.	.
4F\)	.	8d\	.	8f\	.	.	.
.	.	8c\J	.	8e\J	.	.	.
=4	=4	=4	=4	=4	=4	=4	=4
8G\L	San-	2B\	-ctus	4d\	-ctus	8b\L	San-
8A\	.	.	.	.	.	8cc\	.
8B\	.	.	.	4r	.	8dd\	.
8c\J	.	.	.	.	.	8ee\J	.
8B\L	.	2r	.	2r	.	8dd\L	.
8c\	.	.	.	.	.	8ee\	.
8B\	.	.	.	.	.	8dd\	.
8A\J	.	.	.	.	.	8cc\J	.
!	!	!	!	!LO:LB:g=original	!	!	!
=5	=5	=5	=5	=5	=5	=5	=5
!	!	!	!	!	!	!LO:TX:a:t=P:problem:pierwotnie w źródle pod tą nutą sylaba "-ctus,"; zmiany w podłożeniu tekstu zapisane zostały ołówkiem	!
1G	.	8d\L	San-	8f\L	San-	1b	.
.	.	8c\	.	8e\	.	.	.
.	.	8B\	.	8d\	.	.	.
.	.	8A\J	.	8c\J	.	.	.
!	!	!LO:TX:t=P:problem:mixed beam	!	!LO:TX:t=P:problem:mixed beam	!	!	!
.	.	8G/L	.	8B/L	.	.	.
.	.	8f\	.	8a\	.	.	.
.	.	8e\	.	8g\	.	.	.
.	.	8d\J	.	8f\J	.	.	.
!	!	!LO:LB:g=original	!	!	!	!LO:LB:g=original	!
=6	=6	=6	=6	=6	=6	=6	=6
!	!	!	!	!	!	!LO:TX:a:t=P:problem:pierwotnie w źródle pod tą nutą sylaba "Do-"; zmiany w podłożeniu tekstu zapisane zostały ołówkiem	!
2C/	-ctus	2c\	-ctus	2e\	-ctus	2g\	-ctus,
!	!	!	!	!	!	!LO:TX:a:t=P:problem:pierwotnie w źródle pod tą nutą sylaba "-mi-,"; zmiany w podłożeniu tekstu zapisane zostały ołówkiem	!
4C/	Do-	4c\	Do-	4e\	Do-	4g\	Do-
!	!	!	!	!	!	!LO:TX:a:t=P:problem:pierwotnie w źródle pod tą nutą sylaba "-nus,"; zmiany w podłożeniu tekstu zapisane zostały ołówkiem	!
8C/	-mi-	8c\	-mi-	8e\	-mi-	(>8g\L	-mi-
!	!	!	!	!	!	!LO:TX:a:t=P:problem:pierwotnie w źródle pod tą nutą brak żadnego tekstu słownego; zmiany w podłożeniu tekstu zapisane zostały ołówkiem	!
8GG/	-nus	8d\	-nus	8f\	-nus	8b\J)	-nus
!LO:LB:g=original	!	!	!	!	!	!	!
=7	=7	=7	=7	=7	=7	=7	=7
2C/	De-	(>8e\L	De-	(>8g\L	De-	2.g\	De-
.	.	8d\	.	8f\	.	.	.
.	.	8c\	.	8e\	.	.	.
.	.	8d\J)	.	8f\J	.	.	.
(<4BB/	-us	(>8e\L	-us	8g\L	.	.	.
.	.	8d\J)	.	8f\J)	.	.	.
4C/)	.	(>8d\L	De-	8f\L	-us	4g\	-us
.	.	8c\J)	.	8e\J	.	.	.
=8	=8	=8	=8	=8	=8	=8	=8
2.G\	sa-	4B\	-us	4d\	De-	2.g\	Sa-
.	.	(>8B\L	sa-	(>8d\L	-us	.	.
.	.	8c\J)	.	8e\J)	.	.	.
.	.	(>8d\L	.	(>8f\L	sa-	.	.
.	.	8c\J)	.	8e\J)	.	.	.
4F#X\	-ba-	(>8d\L	-ba-	(>8f\L	-ba-	4a\	-ba-
.	.	8c\J)	.	8e\J)	.	.	.
=9	=9	=9	=9	=9	=9	=9	=9
!LO:SIC:l:v:s=-oth	!	!LO:SIC:l:v:s=-oth	!	!	!	!	!
1G	-ot	2B\	-ot	2d\	-oth	1g	-oth
.	.	2r	.	2r	.	.	.
!	!	!	!	!LO:LB:g=original	!	!	!
=10||	=10||	=10	=10	=10	=10	==10	==10
2G\	Ple-	2B\	ple-	2g\	ple-	2dd\	ple-
4A\	-ni	4c\	-ni	4f#X\	-ni	4cc\	-ni
4B\	sunt	4d\	sunt	4fn\	sunt	4g\	sunt
=11	=11	=11	=11	=11	=11	=11	=11
!LO:SIC:l:v:s=cae-	!	!LO:SIC:l:v:s=cae-	!	!LO:SIC:l:v:s=cae-	!	!LO:SIC:l:v:s=cae-	!
4c\	ce-	4c\	ce-	4e\	ce-	4g\	ce-
4G\	-li	4B\	-li	4d\	-li	4g\	-li
4r	.	4r	.	4r	.	4r	.
4G\	et	(>8B\L	et	(>8d\L	et	(>8dd\L	et
!	!	!LO:TX:a:t=P:problem:w źródle ta adnotacja zapisana za taktem 11, na marginesie strony	!	!	!	!	!
!	!	!LO:TX:b:i:t=V&colon; S&colon;	!	!LO:TX:b:i:t=V&colon;S&colon;	!	!	!
.	.	8c\J)	.	8e\J)	.	8cc\J)	.
!	!	!LO:PB:g=original	!	!	!	!LO:LB:g=original	!
=12	=12	=12	=12	=12	=12	=12	=12
4G\	ter-	4d\	ter-	4f\	ter-	4b\	ter-
4C/	-ra	4c\	-ra	4e\	-ra	4g\	-ra
2r	.	4r	.	4r	.	2r	.
.	.	(>8c\L	glo-	(>8e\L	glo-	.	.
.	.	8d\J)	.	8f\J)	.	.	.
=13	=13	=13	=13	=13	=13	=13	=13
4C/	glo-	4e\	.	4g\	.	4cc\	glo-
8BB/	-ri-	8f\	-ri-	8a\	-ri-	8dd\	-ri-
8C/	-a	8e\	-a	8g\	-a	8cc\	-a
4F\	tu-	4d\	tu-	(>4f\	tu-	(>4cc\	tu-
4F#X\	.	4c\	.	4e\)	.	4a\)	.
=14	=14	=14	=14	=14	=14	=14	=14
1G	-a	2B\	-a	2d\	-a	2.g\	-a
.	.	4r	.	4r	.	.	.
.	.	(>8B\L	glo-	(>8d\L	glo-	4r	.
.	.	8c\J)	.	8e\J)	.	.	.
!LO:LB:g=original	!	!	!	!LO:LB:g=original	!	!	!
=15	=15	=15	=15	=15	=15	=15	=15
2.G\	glo-	(>8d\L	.	(>8f\L	.	2.b\	glo-
.	.	8c\J	.	8e\J	.	.	.
.	.	4d\)	.	4f\)	.	.	.
.	.	(>8e\L	-ri-	(>8g\L	-ri-	.	.
.	.	8d\J)	.	8f\J)	.	.	.
8GG/	-ri-	(>8c\L	-a	(>8e\L	-a	8g\	-ri-
8GG/	-a	8B\J)	.	8d\J)	.	8g\	-a
=16	=16	=16	=16	=16	=16	=16	=16
*	*	*	*	*Xtuplet	*	*	*
4C/	glo-	(>12c\L	glo-	12e\L	glo-	2.g\	glo-
.	.	12B\	.	12d\	.	.	.
.	.	12c\J)	.	12e\J	.	.	.
4BB/	.	(>12d\L	.	12f\L	.	.	.
.	.	12c\	.	12e\	.	.	.
.	.	12d\J)	.	12f\J	.	.	.
4C/	-ri-	(>12e\L	.	12g\L	-ri-	.	.
.	.	12d\	-ri-	12f\	.	.	.
.	.	12e\J)	.	12g\J	.	.	.
4F\	-a	(>12f\L	-a	12a\L	-a	8a\	-ri-
.	.	12e\	.	12g\	.	.	.
.	.	.	.	.	.	8a\	-a
.	.	12d\J)	.	12f\J	.	.	.
!	!	!LO:LB:g=original	!	!	!	!LO:LB:g=original	!
=17	=17	=17	=17	=17	=17	=17	=17
2G\	tu-	2c\	tu-	(>2e\	tu-	1g	tu-
2GG/	.	2B\	.	2d\)	.	.	.
=18	=18	=18	=18	=18	=18	=18	=18
!	!	!	!	!	!	!LO:N:vis=1	!
!	!	!	!	!	!	!LO:TX:a:t=P:problem:w źródle ta adnotacja zapisana za taktem 18, na pięciolinii	!
!	!	!	!	!	!	!LO:TX:b:i:t=Seque Osanna V&colon; S&colon;	!
2.C/	-a.	2.c\	-a	2.e\	-a	2.g\	-a.
4ryy	.	4ryy	.	4ryy	.	4ryy	.
!	!	!	!	!	!	!LO:PB:g=original	!
==	==	==	==	==	==	==	==
*M4/4	*	*M4/4	*	*M4/4	*	*M4/4	*
*met(C.)	*	*met(C.)	*	*met(C.)	*	*met(C.)	*
!	!	!	!	!	!	!LO:TX:a:t=P:problem:w źródle ta adnotacja zapisana przed dopełnieniem taktu 18, na pięciolinii	!
!	!	!	!	!	!	!LO:TX:a:i:t=Osanna	!
4C/	O-	(>8G\L	O-	(>8c\L	O-	4g\	O-
.	.	8c\J)	.	8e\J)	.	.	.
=19	=19	=19	=19	=19	=19	=19	=19
4C/	-san-	4e\	-san-	4g\	-san-	4cc\	-san-
4E\	-na	4e\	-na	4g\	-na	4cc\	-na
4G\	in	(>8e\L	in	(>8g\L	in	4cc\	in
.	.	8f\J)	.	8a\J)	.	.	.
4GG/	ex-	8e\L	ex-	(>8g\L	ex-	4b\	ex-
.	.	8d\J	.	8f\J)	.	.	.
!	!	!	!	!LO:LB:g=original	!	!	!
=20	=20	=20	=20	=20	=20	=20	=20
4GG/	-cel-	4d\	-cel-	4f\	-cel-	4b\	-cel-
4C/	-sis	4c\	-sis	4e\	-sis	4g\	-sis
4r	.	4r	.	4r	.	4r	.
4C/	o-	4c\	o-	4e\	o-	4g\	o-
!LO:LB:g=original	!	!	!	!	!	!	!
=21	=21	=21	=21	=21	=21	=21	=21
(>2G\	-san-	4B\	-san-	(>4d\	-san-	1g	-san-
.	.	(>4c\	.	4e\	.	.	.
2GG/)	.	8e\L	.	8g\L	.	.	.
.	.	8d\	.	8f\	.	.	.
.	.	8c\	.	8e\	.	.	.
.	.	8B\J)	.	8d\J)	.	.	.
=22	=22	=22	=22	=22	=22	=22	=22
2C/	-na	2c\	-na	2e\	-na	2g\	-na
4r	.	4r	.	4r	.	4r	.
4C/	o-	4c\	o-	4e\	o-	4g\	o-
!	!	!LO:LB:g=original	!	!	!	!	!
=23	=23	=23	=23	=23	=23	=23	=23
4.GG/	-san-	4.B\	-san-	4.d\	-san-	4.g\	-san-
8G\	-na	8c\	-na	8e\	-na	8g\	-na
!	!	!	!	!	!	!LO:LB:g=original	!
4B\	in	4d\	in	4f\	in	4g\	in
4G\	ex-	4d\	ex-	4f\	ex-	4b\	ex-
=24	=24	=24	=24	=24	=24	=24	=24
(>4c\	-cel-	(>8c\L	-cel-	(>8e\L	-cel-	2g\	-cel-
.	.	8d\J	.	8f\	.	.	.
4G\)	.	8d\L	.	8f\	.	.	.
.	.	8e\J)	.	8g\J	.	.	.
(>4E\	-sis	2e\	-sis	4g\	.	4g\	-sis
4C\)	.	.	.	4g\)	-sis	(>4g\	in
=25	=25	=25	=25	=25	=25	=25	=25
4F\	in	4f\	in	4a\	in	4cc\)	.
4F\	ex-	(>8e\L	ex-	(>8g\L	ex-	4a\	ex-
.	.	8d\J)	.	8f\J)	.	.	.
4G\	-cel-	(>4c\	-cel-	(>4e\	-cel-	2g\	-cel-
4GG/	.	4B\)	.	4d\)	.	.	.
!	!	!	!	!LO:LB:g=original	!	!	!
=26	=26	=26	=26	=26	=26	=26	=26
2C/	-sis	2c\	-sis	2e\	-sis	2g\	-sis
4r	.	4r	.	4r	.	4r	.
4C/	o-	4c\	o-	4e\	o-	4g\	o-
!LO:LB:g=original	!	!	!	!	!	!	!
=27	=27	=27	=27	=27	=27	=27	=27
4.GG/	-san-	4.B\	-san-	4.d\	-san-	4.g\	-san-
8G\	-na	8c\	-na	8e\	-na	8g\	-na
4B\	in	4d\	in	4f\	in	4g\	in
4G\	ex-	4d\	ex-	4f\	ex-	4b\	ex-
!	!	!LO:LB:g=original	!	!	!	!	!
=28	=28	=28	=28	=28	=28	=28	=28
(>4c\	-cel-	8c\L	-cel-	(>8e\L	-cel-	2g\	-cel-
.	.	8d\	.	8f\	.	.	.
4G\)	.	8d\	.	8f\	.	.	.
.	.	8e\J	.	8g\J	.	.	.
!	!	!	!	!	!	!LO:LB:g=original	!
(>4E\	-sis	2e\	-sis	4g\)	.	4g\	-sis
4C\)	.	.	.	4g\	-sis	(>4g\	in
=29	=29	=29	=29	=29	=29	=29	=29
4F\	in	4f\	in	4a\	in	4cc\)	.
4F\	ex-	(>8e\L	ex-	(>8g\L	ex-	4a\	ex-
.	.	8d\J)	.	8f\J)	.	.	.
4G\	-cel-	(>4c\	-cel-	(>4e\	-cel-	2g\	-cel-
4GG/	.	4B\)	.	4d\)	.	.	.
=30	=30	=30	=30	=30	=30	=30	=30
1C	-sis.	1c	-sis	1e	-sis.	1g	-sis.
!LO:LB:g=original	!	!LO:LB:g=original	!	!LO:LB:g=original	!	!LO:LB:g=original	!
==31	==31	==31	==31	==31	==31	==31	==31
*M3/4	*	*M3/4	*	*M3/4	*	*M3/4	*
!LO:TX:a:t=P:problem:w źródle ta adnotacja zapisana przed taktem 31, na pięciolinii	!	!LO:TX:a:t=P:problem:w źródle ta adnotacja zapisana przed taktem 31, na pięciolinii	!	!LO:TX:a:t=P:problem:w źródle ta adnotacja zapisana przed taktem 31, na pięciolinii	!	!LO:TX:a:t=P:problem:w źródle ta adnotacja zapisana przed taktem 31, na pięciolinii	!
!LO:TX:a:i:t=Benedictus	!	!LO:TX:a:i:t=Benedictus	!	!LO:TX:a:i:t=Benedictus	!	!LO:TX:a:i:t=Benedictus	!
(<8C/L	Be-	(4e\	Be-	(>4g\	Be-	(>4cc\	Be-
8E/J)	.	.	.	.	.	.	.
4G\	.	4d\)	.	4f\)	.	4b\)	.
4c\	.	4c\	-ne-	4e\	-ne-	4g\	-ne-
=32	=32	=32	=32	=32	=32	=32	=32
2G\	.	4B\	-dic-	4d\	-di-	4dd\	-di-
.	.	4c\	-tus	4e\	-ctus	4cc\	-ctus
4G\	-ne-	4d\	qui	4f\	qui	4b\	qui
=33	=33	=33	=33	=33	=33	=33	=33
(>4C/	-dic-	16d\LL	ve-	(>8e\L	ve-	2.g\	ve-
.	.	16c\	.	.	.	.	.
.	.	16B\	.	16d\L	.	.	.
.	.	16c\JJ	.	16e\JJ	.	.	.
4F\	.	8d\L	.	8f\L	.	.	.
.	.	8c\	.	8e\	.	.	.
4G\)	.	8B\	.	8d\	.	.	.
.	.	8d\J	.	8f\J)	.	.	.
=34	=34	=34	=34	=34	=34	=34	=34
4C/	-tus	4c\	-nit	4e\	-nit	4g\	-nit
4r	.	4r	.	4r	.	4r	.
4r	.	(>8c\L	qui	(>8e\L	qui	4g\	qui
.	.	8d\J)	.	8f\J)	.	.	.
!	!	!	!	!	!	!LO:LB:g=original	!
=35	=35	=35	=35	=35	=35	=35	=35
4r	.	4c\	ve-	4e\	ve-	4g\	ve-
4r	.	4B\	-nit	4d\	-nit	4g\	-nit
!	!	!	!	!LO:LB:g=original	!	!	!
4G\	qui	(>8d\L	qui	(>8f\L	qui	(>8b\L	qui
.	.	8e\J)	.	8g\J)	.	8cc\J)	.
!	!	!LO:LB:g=original	!	!	!	!	!
=36	=36	=36	=36	=36	=36	=36	=36
4C/	ve-	4d\	ve-	4f\	ve-	4b\	ve-
4C/	-nit	4c\	-nit	4e\	-nit	4g\	-nit
4C/	in	4e\	in	4g\	in	4cc\	in
=37	=37	=37	=37	=37	=37	=37	=37
4.C/	no-	4.e\	no-	4.g\	no-	4.cc\	no-
8D/	-mi-	8d\	-mi-	8f\	-mi-	8b\	-mi-
!LO:LB:g=original	!	!	!	!	!	!	!
(>8E\L	-ne	4c\	-ne	4e\	-ne	4g\	-ne
8F\J)	.	.	.	.	.	.	.
=38	=38	=38	=38	=38	=38	=38	=38
8G\	Do-	8c\	Do-	8e\	Do-	8g\	Do-
8GG/	-mi-	8B\	-mi-	8d\	-mi-	8g\	-mi-
4GG/	-ni	4B\	-ni	4d\	-ni	4g\	-ni
4r	.	4r	.	4r	.	4r	.
=39	=39	=39	=39	=39	=39	=39	=39
(>4G\	be-	4B\	Be-	(>4g\	Be-	2dd\	Be-
4A\)	.	4c\	.	4f#X\)	.	.	.
4B\	-ne-	4d\	-ne-	4fn\	-ne-	4b\	-ne-
=40	=40	=40	=40	=40	=40	=40	=40
(>4c\	-dic-	4c\	-dic-	4e\	-dic-	2g\	-di-
4G\)	.	4B\	-tus	4d\	-tus	.	.
8C/	-tus	(>8c\L	qui	(>8e\L	qui	8g\	-ctus
8G\	qui	8B\J)	.	8g\J)	.	8dd\	qui
!	!	!	!	!LO:LB:g=original	!	!LO:LB:g=original	!
=41	=41	=41	=41	=41	=41	=41	=41
(>4G\	ve-	4B\	ve-	4g\	ve-	2dd\	ve-
4A\	.	4c\	-nit	4f#X\	-nit	.	.
4B\	.	4d\	qui	4fn\	qui	4b\	-nit
!	!	!LO:LB:g=original	!	!	!	!	!
=42	=42	=42	=42	=42	=42	=42	=42
4c\)	.	4c\	ve-	4e\	ve-	4g\	ve-
4G\	-nit	4B\	-nit	4d\	-nit	4g\	-nit
8C/L	in	8c\L	in	(>8e\L	in	4g\	in
8BB/J	.	8d\J	.	8f\J)	.	.	.
=43	=43	=43	=43	=43	=43	=43	=43
4.C/	no-	4.c\	no-	4.e\	no-	4.g\	no-
8BB/	-mi-	8d\	-mi-	8f\	-mi-	8b\	-mi-
4C/	-ne	4e\	-ne	4g\	-ne	4cc\	-ne
=44	=44	=44	=44	=44	=44	=44	=44
(>8E\L	Do-	(>8e\L	Do-	(>8g\L	Do-	(>8cc\L	Do-
8F\J	.	8d\J	.	8f\J	.	8a\J)	.
4G\)	.	4c\)	.	4e\)	.	2g\	-mi-
4GG/	-mi-	4B\	-mi-	4d\	-mi-	.	.
!LO:LB:g=original	!	!	!	!	!	!	!
=45	=45	=45	=45	=45	=45	=45	=45
4C/	-ni	4c\	-ni	4e\	-ni	4g\	-ni
4r	.	(>8c\L	in	(>8e\L	in	4r	.
.	.	8d\)	.	8f\J	.	.	.
8r	.	(>8d\	.	8f\L	.	8r	.
8C/	in	8e\J)	.	8g\J)	.	8cc\	in
=46	=46	=46	=46	=46	=46	=46	=46
4.C/	no-	4.e\	no-	4.g\	no-	4.cc\	no-
8D/	-mi-	8d\	-mi-	8f\	-mi-	8b\	-mi-
4E\	-ne	4c\	-ne	4e\	-ne	4g\	-ne
!	!	!	!	!LO:LB:g=original	!	!LO:LB:g=original	!
=47	=47	=47	=47	=47	=47	=47	=47
(>4F\	Do-	16d\LL	Do-	(>16f\LL	Do-	(>4a\	Do-
.	.	16e\	.	16g\	.	.	.
.	.	16f\	.	16a\	.	.	.
.	.	16d\JJ	.	16f\JJ	.	.	.
!	!	!LO:LB:g=original	!	!	!	!	!
4G\)	.	4c\	.	4e\)	.	4g\)	.
4GG/	-mi-	4B\	-mi-	4d\	-mi-	4g\	-mi-
=48	=48	=48	=48	=48	=48	=48	=48
!	!	!	!	!LO:TX:a:t=P:problem:w źródle ta adnotacja zapisana za taktem 48, na pięciolinii	!	!LO:TX:a:t=P:problem:w źródle ta adnotacja zapisana za taktem 48, na pięciolinii	!
!LO:N:vis=2	!	!LO:N:vis=2	!	!LO:TX:b:i:t=Osanna Da Capo.	!	!LO:TX:b:i:t=Osanna Da Capo.	!
2.C/	-ni	2.c\	-ni	2e\	-ni.	2.g\	-ni.
.	.	.	.	4r	.	.	.
!	!	!	!	!LO:PB:g=original	!	!LO:LB:g=original	!
==49	==49	==49	==49	==49	==49	==49	==49
*M4/4	*	*M4/4	*	*M4/4	*	*M4/4	*
*met(C.)	*	*met(C.)	*	*met(C.)	*	*met(C.)	*
4C/	O-	(>8G\L	O-	(8c\Lyy	O-	4g\yy	O-
.	.	8c\J)	.	8e\J)yy	.	.	.
=50	=50	=50	=50	=50	=50	=50	=50
4C/	-san-	4e\	-san-	4g\yy	-san-	4cc\yy	-san-
4E\	-na	4e\	-na	4g\yy	-na	4cc\yy	-na
4G\	in	(>8e\L	in	(8g\Lyy	in	4cc\yy	in
.	.	8f\J)	.	8a\J)yy	.	.	.
4GG/	ex-	(>8e\L	ex-	8g\Lyy	ex-	4b\yy	ex-
.	.	8d\J)	.	8f\Jyy	.	.	.
=51	=51	=51	=51	=51	=51	=51	=51
4GG/	-cel-	4d\	-cel-	4f\yy	-cel-	4b\yy	-cel-
4C/	-sis	4c\	-sis	4e\yy	-sis	4g\yy	-sis
4r	.	4r	.	4ryy	.	4ryy	.
4C/	o-	4c\	o-	4e\yy	o-	4g\yy	o-
=52	=52	=52	=52	=52	=52	=52	=52
(>2G\	-san-	(>4B\	-san-	(4d\yy	-san-	1gyy	-san-
.	.	4c\)	.	4e\yy	.	.	.
2GG/)	.	8e\L	.	8g\Lyy	.	.	.
.	.	8d\	.	8f\yyyy	.	.	.
.	.	8c\	.	8e\yy	.	.	.
.	.	8B\J	.	8d\J)yy	.	.	.
!	!	!LO:LB:g=original	!	!	!	!	!
=53	=53	=53	=53	=53	=53	=53	=53
2C/	-na	2c\	-na	2e\yy	-na	2g\yy	-na
4r	.	4r	.	4ryy	.	4ryy	.
4C/	o-	4c\	o-	4e\yy	o-	4g\yy	o-
!LO:LB:g=original	!	!	!	!	!	!	!
=54	=54	=54	=54	=54	=54	=54	=54
4.GG/	-san-	4.B\	-san-	4.d\yy	-san-	4.g\yy	-san-
8G\	-na	8c\	-na	8e\yy	-na	8g\yy	-na
4B\	in	4d\	in	4f\yy	in	4g\yy	in
4G\	ex-	4d\	ex-	4f\yyyy	ex-	4b\yy	ex-
=55	=55	=55	=55	=55	=55	=55	=55
(>4c\	-cel-	8c\L	-cel-	(8e\Lyy	-cel-	2g\yy	-cel-
.	.	8d\	.	8f\yy	.	.	.
4G\)	.	8d\	.	8f\yy	.	.	.
.	.	8e\J	.	8g\Jyy	.	.	.
(>4E\	-sis	2e\	-sis	4g\yy	.	4g\yy	-sis
4C\)	.	.	.	4g\)yy	-sis	(>4g\yy	in
=56	=56	=56	=56	=56	=56	=56	=56
4F\	in	4f\	in	4a\yy	in	4cc\)yy	.
4F\	ex-	8e\L	ex-	(8g\Lyy	ex-	4a\yy	ex-
.	.	8d\J	.	8f\J)yy	.	.	.
(>4G\	-cel-	(>4c\	-cel-	(4e\yyyy	-cel-	2g\yy	-cel-
4GG/)	.	4B\)	.	4d\)yy	.	.	.
=57	=57	=57	=57	=57	=57	=57	=57
2C/	-sis	2c\	-sis	2e\yy	-sis	2g\yy	-sis
4r	.	4r	.	4ryy	.	4ryy	.
4C/	o-	4c\	o-	4e\yy	o-	4g\yy	o-
!	!	!LO:LB:g=original	!	!	!	!	!
=58	=58	=58	=58	=58	=58	=58	=58
4.GG/	-san-	4.B\	-san-	4.d\yy	-san-	4.g\yy	-san-
8G\	-na	8c\	-na	8e\yy	-na	8g\yy	-na
4B\	in	4d\	in	4f\yy	in	4g\yy	in
4G\	ex-	4d\	ex-	4f\yy	ex-	4b\yy	ex-
=59	=59	=59	=59	=59	=59	=59	=59
(>4c\	-cel-	8c\L	-cel-	(8e\Lyy	-cel-	2g\yy	-cel-
.	.	8d\	.	8f\yy	.	.	.
4G\)	.	8d\	.	8f\yy	.	.	.
.	.	8e\J	.	8g\Jyy	.	.	.
(>4E\	-sis	2e\	-sis	4g\)yy	.	4g\yy	-sis
4C\)	.	.	.	4g\yy	-sis	(>4g\yy	in
!LO:LB:g=original	!	!	!	!	!	!	!
=60	=60	=60	=60	=60	=60	=60	=60
4F\	in	4f\	in	4a\yy	in	4cc\)yy	.
4F\	ex-	8e\L	ex-	(8g\Lyy	ex-	4a\yy	ex-
.	.	8d\J	.	8f\J)yy	.	.	.
(>4G\	-cel-	4c\	-cel-	(4e\yy	-cel-	2g\yy	-cel-
4GG/)	.	4B\	.	4d\)yy	.	.	.
=61	=61	=61	=61	=61	=61	=61	=61
1C	-sis.	1c	-sis.	1eyy	-sis.	1gyy	-sis.
==	==	==	==	==	==	==	==
*-	*-	*-	*-	*-	*-	*-	*-
!!!system-decoration: [(s1,s2,s3,s4)]
!!!RDF**kern: > = above
!!!RDF**kern: < = below
!!!EED: Antoni Szymański
!!!EST: 2021-02-03
!!!AIN: 1 alto 1 bass 2 tenor
!!!ENC: Mateusz Solarz
!!!END: 2021-01-27
